svgs/regular/bags-shopping.svg

<svg xmlns="http://www.w3.org/2000/svg" viewBox="0 0 576 512"><!-- Font Awesome Pro 6.0.0-alpha2 by @fontawesome - https://fontawesome.com License - https://fontawesome.com/license (Commercial License) --><path d="M512 256H256C220.654 256 192 284.652 192 320V448C192 483.346 220.654 512 256 512H512C547.348 512 576 483.346 576 448V320C576 284.652 547.348 256 512 256ZM480 352C480 404.938 436.938 448 384 448S288 404.938 288 352V344C288 330.75 298.75 320 312 320S336 330.75 336 344V352C336 378.469 357.531 400 384 400S432 378.469 432 352V344C432 330.75 442.75 320 456 320S480 330.75 480 344V352ZM48 416V224C48 215.178 55.178 208 64 208H384C392.822 208 400 215.178 400 224H448C448 188.652 419.348 160 384 160H320V96C320 43.062 276.938 0 224 0S128 43.062 128 96V160H64C28.654 160 0 188.652 0 224V416C0 451.346 28.654 480 64 480H160V432H64C55.178 432 48 424.822 48 416ZM176 96C176 69.531 197.531 48 224 48S272 69.531 272 96V160H176V96Z"/></svg>

<svg xmlns="http://www.w3.org/2000/svg" viewBox="0 0 576 512"><!--! Font Awesome Pro 6.0.0-alpha3 by @fontawesome - https://fontawesome.com License - https://fontawesome.com/license (Commercial License) --><path d="M512 256H256c-35.35 0-64 28.65-64 64v128c0 35.35 28.65 64 64 64h256c35.35 0 64-28.65 64-64v-128C576 284.7 547.3 256 512 256zM480 351.1c0 52.94-43.06 96-96 96S288 404.9 288 352v-8c0-13.25 10.75-23.1 24-23.1S336 330.8 336 344V352c0 26.47 21.53 48 48 48s48-21.53 48-48v-8c0-13.25 10.75-23.1 24-23.1S480 330.8 480 344V351.1zM48 416V224c0-8.822 7.178-16 16-16h320c8.822 0 16 7.178 16 16H448c0-35.35-28.65-64-64-64l-64 0V96c0-52.94-43.06-96-96-96S128 43.06 128 96v64L64 160C28.65 160 0 188.7 0 224v192c0 35.35 28.65 64 64 64h96v-48H64C55.18 432 48 424.8 48 416zM176 96c0-26.47 21.53-48 48-48S272 69.53 272 96v64h-96V96z"/></svg>
